assets/icon-play.svg

<svg width="16" height="16" viewBox="0 0 16 16" fill="none" xmlns="http://www.w3.org/2000/svg">
<g clip-path="url(#clip0)">
<path d="M14 7.999C14 7.673 13.841 7.367 13.573 7.18L3.573 0.180005C3.269 -0.0339955 2.869 -0.0579955 2.538 0.112005C2.207 0.285004 2 0.626005 2 0.999005V15C2 15.373 2.207 15.715 2.538 15.887C2.869 16.057 3.268 16.033 3.573 15.819L13.573 8.81901C13.841 8.63301 14 8.32701 14 8.00101C14 8 14 8 14 7.999C14 8 14 8 14 7.999Z" fill="#546BFB"/>
</g>
<defs>
<clipPath id="clip0">
<rect width="16" height="16" fill="white"/>
</clipPath>
</defs>
</svg>

<svg fill="none" height="16" viewBox="0 0 16 16" width="16" xmlns="http://www.w3.org/2000/svg" xmlns:xlink="http://www.w3.org/1999/xlink"><clipPath id="a"><path d="m0 0h16v16h-16z"/></clipPath><g clip-path="url(#a)"><path d="m14 7.999c0-.326-.159-.632-.427-.819l-10-6.999995c-.304-.2140005-.704-.2380005-1.035-.068-.331.172999-.538.514-.538.887v14.000995c0 .373.207.715.538.887.331.17.73.146 1.035-.068l10-6.99999c.268-.186.427-.492.427-.818 0-.00101 0-.00101 0-.00201z" fill="#546bfb"/></g></svg>
